src/pos-icons/cellphone-nfc.svg

<svg height="24" viewBox="0 0 24 24" width="24" xmlns="http://www.w3.org/2000/svg"><path d="m2 16v2a5 5 0 0 1 5 5h2a7 7 0 0 0 -7-7m0 4v3h3a3 3 0 0 0 -3-3m0-8v2a9 9 0 0 1 9 9h2c0-6.08-4.92-11-11-11m15-11h-10a2 2 0 0 0 -2 2v7.37c.69.16 1.36.37 2 .63v-6h10v13h-3.03c.53 1.25.84 2.59.95 4h2.08a2 2 0 0 0 2-2v-17a2 2 0 0 0 -2-2z"/></svg>

<?xml version="1.0" encoding="UTF-8"?><!DOCTYPE svg PUBLIC "-//W3C//DTD SVG 1.1//EN" "http://www.w3.org/Graphics/SVG/1.1/DTD/svg11.dtd"><svg xmlns="http://www.w3.org/2000/svg" xmlns:xlink="http://www.w3.org/1999/xlink" version="1.1" id="mdi-cellphone-nfc" width="24" height="24" viewBox="0 0 24 24"><path d="M2,16V18A5,5 0 0,1 7,23H9A7,7 0 0,0 2,16M2,20V23H5A3,3 0 0,0 2,20M2,12V14A9,9 0 0,1 11,23H13C13,16.92 8.08,12 2,12M17,1H7A2,2 0 0,0 5,3V10.37C5.69,10.53 6.36,10.74 7,11V5H17V18H13.97C14.5,19.25 14.81,20.59 14.92,22H17A2,2 0 0,0 19,20V3A2,2 0 0,0 17,1Z" /></svg>
